X: 23
T:Llygoden yn y Felin
T:Mouse in the Mill
M:6/8
L:1/8
Q:130
S:Cadw Twmpath Collection
R:Jig
A:Wales
Z:brian_martin12345@yahoo.com
K:G
D|G2GB2G|AFAc2A|B2AG2F|A2GF2D|
G2GB2G|A2Bc2A|B2B^c2c|d3-d2:||
B|d2dd2=f|eccc2B|c2c cBc|dBG GFG|
G2Gg2d|B2B ecc|B2AG2F|G3-G2:||
